X:251
T:Jig
C:Simon Nyberg
R:jig
M:6/8
L:1/8
K:A
Aag afa | eae cde | fBB B2A | Bcd ecB |
Aag afa | eae cde | fag fec | BAA- AAG ::
F2a agf | e2e ecA | B2B BcA | BcA BAG |
F2a agf | e2e ecA | B2B Bcd | efg aga :|
